64x64/apps/amsynth.svg

<svg height="64" width="64" xmlns="http://www.w3.org/2000/svg"><rect height="56" opacity=".2" ry="12" width="56" x="4" y="5"/><rect fill="#f4881f" height="56" ry="12" width="56" x="4" y="4"/><path d="m13 12v44h11v-34h9v34h20v-10h-9v-34h-20z" opacity=".1"/><path d="m13 11v44h11v-34h9v34h20v-10h-9v-34z" fill="#17191e"/><path d="m16 4c-6.648 0-12 5.352-12 12v1c0-6.648 5.352-12 12-12h32c6.648 0 12 5.352 12 12v-1c0-6.648-5.352-12-12-12z" fill="#f4f4f7" opacity=".2"/></svg>

<svg height="64" width="64" xmlns="http://www.w3.org/2000/svg">
    <rect height="56" opacity=".2" ry="12" width="56" x="4" y="5"/>
    <rect fill="#f4881f" height="56" ry="12" width="56" x="4" y="4"/>
    <path d="M13 12v44h11V22h9v34h20V46h-9V12H24z" opacity=".1"/>
    <path d="M13 11v44h11V21h9v34h20V45h-9V11z" fill="#17191e"/>
    <path d="M16 4C9.352 4 4 9.352 4 16v1C4 10.352 9.352 5 16 5h32c6.648 0 12 5.352 12 12v-1c0-6.648-5.352-12-12-12z" fill="#f4f4f7" opacity=".2"/>
</svg>
